svgs/light/person-through-window.svg

<svg xmlns="http://www.w3.org/2000/svg" viewBox="0 0 640 512"><!--! Font Awesome Pro 6.4.0 by @fontawesome - https://fontawesome.com License - https://fontawesome.com/license (Commercial License) Copyright 2023 Fonticons, Inc. --><path d="M48 32c-8.8 0-16 7.2-16 16V400c0 8.8 7.2 16 16 16h80l0-70.4c0-70.6 41.2-134.7 105.3-164.1c52.8-24.2 86.7-77 86.7-135.1L320 32 48 32zM352 46.4c0 63.8-33.6 122.3-87.4 154.7L328.1 288l64.5 0c9.3 0 18.2 4.1 24.3 11.2l91.2 106.4 8.9 10.4H592c8.8 0 16-7.2 16-16V48c0-8.8-7.2-16-16-16L352 32V46.4zM367 416H474.9l-82.3-96-51.3 0-54 40.5 93.5 126c5.3 7.1 3.8 17.1-3.3 22.4s-17.1 3.8-22.4-3.3L312.5 448H48c-26.5 0-48-21.5-48-48V48C0 21.5 21.5 0 48 0H592c26.5 0 48 21.5 48 48V400c0 26.5-21.5 48-48 48H390.5L367 416zm-98.7-81.2l35.1-26.3-67.6-92.4c-13.2 7.4-25.1 16.7-35.2 27.5l67.7 91.2zm-87.8-64.6c-13.2 22.4-20.6 48.3-20.6 75.4l0 70.4H288.7L180.6 270.2zM168 136a24 24 0 1 0 -48 0 24 24 0 1 0 48 0zm-80 0a56 56 0 1 1 112 0A56 56 0 1 1 88 136z"/></svg>

<svg xmlns="http://www.w3.org/2000/svg" viewBox="0 0 640 512"><!--! Font Awesome Pro 6.3.0 by @fontawesome - https://fontawesome.com License - https://fontawesome.com/license (Commercial License) Copyright 2023 Fonticons, Inc. --><path d="M200 136C200 166.9 174.9 192 144 192C113.1 192 88 166.9 88 136C88 105.1 113.1 80 144 80C174.9 80 200 105.1 200 136zM144 112C130.7 112 120 122.7 120 136C120 149.3 130.7 160 144 160C157.3 160 168 149.3 168 136C168 122.7 157.3 112 144 112zM367 416H474.9L392.6 319.1H341.3L287.4 360.5L380.8 486.5C386.1 493.6 384.6 503.6 377.5 508.8C370.4 514.1 360.4 512.6 355.1 505.5L312.5 448H48C21.49 448 0 426.5 0 400V48C0 21.49 21.49 0 48 0H592C618.5 0 640 21.49 640 48V400C640 426.5 618.5 448 592 448H390.5L367 416zM32 48V400C32 408.8 39.16 416 48 416H128V345.6C128 274.1 169.2 210.9 233.3 181.5C286.1 157.3 320 104.5 320 46.4V32H48C39.16 32 32 39.16 32 48V48zM264.6 201.1L328.1 287.1H392.6C401.1 287.1 410.9 292.1 416.9 299.2L517.1 416H592C600.8 416 608 408.8 608 400V48C608 39.16 600.8 32 592 32H352V46.4C352 110.2 318.4 168.7 264.6 201.1V201.1zM268.3 334.8L303.4 308.4L235.8 216.1C222.6 223.5 210.8 232.8 200.6 243.5L268.3 334.8zM160 345.6V416H288.7L180.6 270.2C167.4 292.6 160 318.5 160 345.6V345.6z"/></svg>
